fs/split_horizontal_12_regular.svg

<svg viewBox="0 0 12 12" fill="none" xmlns="http://www.w3.org/2000/svg" height="1em" width="1em">
  <path d="M11 5.5C11 5.22386 10.7761 5 10.5 5L1.5 5C1.22386 5 1 5.22386 1 5.5C1 5.77614 1.22386 6 1.5 6L10.5 6C10.7761 6 11 5.77614 11 5.5ZM10 2.5V4H9V2.5C9 2.22386 8.77614 2 8.5 2L3.5 2C3.22386 2 3 2.22386 3 2.5L3 4H2V2.5C2 1.67157 2.67157 1 3.5 1L8.5 1C9.32843 1 10 1.67157 10 2.5ZM3 8.5V7H2L2 8.5C2 9.32843 2.67157 10 3.5 10H8.5C9.32843 10 10 9.32843 10 8.5V7H9V8.5C9 8.77614 8.77614 9 8.5 9H3.5C3.22386 9 3 8.77614 3 8.5Z" fill="#212121"/>
</svg>

<svg viewBox="0 0 12 12" fill="none" xmlns="http://www.w3.org/2000/svg" height="1em" width="1em">
  <path d="M11 5.5a.5.5 0 0 0-.5-.5h-9a.5.5 0 0 0 0 1h9a.5.5 0 0 0 .5-.5Zm-1-3V4H9V2.5a.5.5 0 0 0-.5-.5h-5a.5.5 0 0 0-.5.5V4H2V2.5A1.5 1.5 0 0 1 3.5 1h5A1.5 1.5 0 0 1 10 2.5Zm-7 6V7H2v1.5A1.5 1.5 0 0 0 3.5 10h5A1.5 1.5 0 0 0 10 8.5V7H9v1.5a.5.5 0 0 1-.5.5h-5a.5.5 0 0 1-.5-.5Z" fill="#212121"/>
</svg>
